public/img/svg/flags/geo.svg

<?xml version="1.0" encoding="UTF-8"?>
<svg xmlns="http://www.w3.org/2000/svg" xmlns:xlink="http://www.w3.org/1999/xlink" width="900" height="600" viewBox="0 0 300 200">
<defs>
<g id="smallcross">
<path id="varm" d="M-6.80951,-19.4174A104,104 0 0,1 -6.80951,19.4174A55,55 0 0,1 6.80951,19.4174A104,104 0 0,1 6.80951,-19.4174A55,55 0 0,1 -6.80951,-19.4174Z"/>
<use xlink:href="#varm" transform="rotate(90)"/>
</g>
</defs>
<rect width="300" height="200" fill="#fff"/>
<g fill="#e8112d">
<path d="M130,0V80H0V120H130V200H170V120H300V80H170V0Z"/>

<use xlink:href="#smallcross" x="64.45" y="39.45"/>
<use xlink:href="#smallcross" x="235.55" y="160.55"/>
<use xlink:href="#smallcross" x="235.55" y="39.45"/>
<use xlink:href="#smallcross" x="64.45" y="160.55"/>
</g>
</svg>

<svg xmlns="http://www.w3.org/2000/svg" xmlns:xlink="http://www.w3.org/1999/xlink" width="900" height="600" viewBox="0 0 300 200"><defs><g id="b"><path id="a" d="M-6.81-19.417a104 104 0 010 38.834 55 55 0 0113.62 0 104 104 0 010-38.834 55 55 0 01-13.62 0z"/><use xlink:href="#a" transform="rotate(90)"/></g></defs><path fill="#fff" d="M0 0h300v200H0z"/><g fill="#e8112d"><path d="M130 0v80H0v40h130v80h40v-80h130V80H170V0z"/><use xlink:href="#b" x="64.45" y="39.45"/><use xlink:href="#b" x="235.55" y="160.55"/><use xlink:href="#b" x="235.55" y="39.45"/><use xlink:href="#b" x="64.45" y="160.55"/></g></svg>
